src/assets/img/svg/doodle1.svg

<svg width="74" height="72" viewBox="0 0 74 72" fill="none" xmlns="http://www.w3.org/2000/svg">
<path d="M49.9123 51.1167C49.9123 51.1167 49.6554 51.3188 49.4818 51.4234C48.44 52.051 47.3375 51.9109 46.9985 51.0743C41.8583 38.3939 34.0481 27.6057 23.857 18.9141C23.2231 18.3735 23.3563 17.1816 24.2447 16.3389C25.0879 15.4998 26.339 15.2191 27.0216 15.8014C37.5053 24.7424 45.476 35.836 50.7768 48.8218C51.0599 49.5265 50.6793 50.4654 49.9158 51.1619L49.9123 51.1167Z" fill="#605DBA" stroke="#605DBA" stroke-width="0.83" stroke-miterlimit="10"/>
<path d="M64.6306 34.9169C64.6306 34.9169 64.4118 35.0251 64.3214 35.0322C63.1678 35.396 62.0475 35.0302 61.8406 34.1377L56.1221 8.9616C55.9151 8.06916 56.6988 7.05299 57.8524 6.68919C59.006 6.32538 60.1263 6.69125 60.3333 7.58369L66.0518 32.7598C66.2516 33.5619 65.5963 34.4771 64.6306 34.9169V34.9169Z" fill="#605DBA" stroke="#605DBA" stroke-width="0.85" stroke-miterlimit="10"/>
<path d="M33.2893 61.4756C33.2893 61.4756 33.2132 61.6634 33.13 61.7609C32.5342 62.8531 31.5233 63.2965 30.8062 62.8533L10.876 48.8879C10.2005 48.396 10.1006 47.1316 10.6512 46.043C11.247 44.9508 12.2579 44.5074 12.975 44.9505L32.9539 58.9575C33.5807 59.4078 33.7115 60.488 33.2893 61.4756Z" fill="#605DBA" stroke="#605DBA" stroke-width="0.82" stroke-miterlimit="10"/>
</svg>

<svg width="74" height="72" viewBox="0 0 74 72" fill="none" xmlns="http://www.w3.org/2000/svg"><path d="M49.912 51.117s-.257.202-.43.306c-1.042.628-2.145.488-2.483-.349-5.14-12.68-12.95-23.468-23.142-32.16-.634-.54-.5-1.732.388-2.575.843-.84 2.094-1.12 2.777-.538 10.483 8.941 18.454 20.035 23.755 33.02.283.706-.098 1.644-.861 2.34l-.004-.044z" fill="#605DBA" stroke="#605DBA" stroke-width=".83" stroke-miterlimit="10"/><path d="M64.63 34.917s-.218.108-.309.115c-1.153.364-2.273-.002-2.48-.894L56.122 8.962c-.207-.893.577-1.909 1.73-2.273 1.154-.364 2.274.002 2.481.895l5.719 25.176c.2.802-.456 1.717-1.421 2.157v0z" fill="#605DBA" stroke="#605DBA" stroke-width=".85" stroke-miterlimit="10"/><path d="M33.29 61.476s-.077.187-.16.285c-.596 1.092-1.607 1.535-2.324 1.092l-19.93-13.965c-.675-.492-.775-1.756-.225-2.845.596-1.092 1.607-1.536 2.324-1.093l19.979 14.008c.627.45.758 1.53.335 2.518z" fill="#605DBA" stroke="#605DBA" stroke-width=".82" stroke-miterlimit="10"/></svg>
